svg/design/fold_vertical_fill.svg

<?xml version="1.0" encoding="UTF-8"?>
<svg width="24px" height="24px" viewBox="0 0 24 24" version="1.1" xmlns="http://www.w3.org/2000/svg" xmlns:xlink="http://www.w3.org/1999/xlink">
    <title>fold_vertical_fill</title>
    <g id="Icon" stroke="none" stroke-width="1" fill="none" fill-rule="evenodd">
        <g id="Design" transform="translate(-384.000000, -432.000000)" fill-rule="nonzero">
            <g id="fold_vertical_fill" transform="translate(384.000000, 432.000000)">
                <path d="M24,0 L24,24 L0,24 L0,0 L24,0 Z M12.5935,23.2578 L12.5819,23.2595 L12.5109,23.295 L12.4919,23.2987 L12.4767,23.295 L12.4057,23.2595 C12.3958,23.2564 12.387,23.259 12.3821,23.2649 L12.378,23.2758 L12.3609,23.7031 L12.3659,23.7235 L12.3769,23.7357 L12.4805,23.8097 L12.4953,23.8136 L12.5071,23.8097 L12.6107,23.7357 L12.6233,23.7197 L12.6267,23.7031 L12.6096,23.2758 C12.6076,23.2657 12.601,23.2593 12.5935,23.2578 Z M12.8584,23.1453 L12.8445,23.1473 L12.6598,23.2397 L12.6499,23.2499 L12.6472,23.2611 L12.6651,23.6906 L12.6699,23.7034 L12.6784,23.7105 L12.8793,23.8032 C12.8914,23.8069 12.9022,23.803 12.9078,23.7952 L12.9118,23.7812 L12.8777,23.1665 C12.8753,23.1546 12.8674,23.147 12.8584,23.1453 Z M12.143,23.1473 C12.1332,23.1424 12.1222,23.1453 12.1156,23.1526 L12.1099,23.1665 L12.0758,23.7812 C12.0751,23.7927 12.0828,23.8019 12.0926,23.8046 L12.1083,23.8032 L12.3092,23.7105 L12.3186,23.7024 L12.3225,23.6906 L12.3404,23.2611 L12.3372,23.2485 L12.3278,23.2397 L12.143,23.1473 Z" id="MingCute"></path>
                <path d="M4,10.9999 C3.44772,10.9999 3,11.4477 3,11.9999 C3,12.5522 3.44772,12.9999 4,12.9999 L5,12.9999 C5.55228,12.9999 6,12.5522 6,11.9999 C6,11.4477 5.55228,10.9999 5,10.9999 L4,10.9999 Z M9,10.9999 C8.44772,10.9999 8,11.4477 8,11.9999 C8,12.5522 8.44772,12.9999 9,12.9999 L10,12.9999 C10.5523,12.9999 11,12.5522 11,11.9999 C11,11.4477 10.5523,10.9999 10,10.9999 L9,10.9999 Z M13,11.9999 C13,11.4477 13.4477,10.9999 14,10.9999 L15,10.9999 C15.5523,10.9999 16,11.4477 16,11.9999 C16,12.5522 15.5523,12.9999 15,12.9999 L14,12.9999 C13.4477,12.9999 13,12.5522 13,11.9999 Z M19,10.9999 C18.4477,10.9999 18,11.4477 18,11.9999 C18,12.5522 18.4477,12.9999 19,12.9999 L20,12.9999 C20.5523,12.9999 21,12.5522 21,11.9999 C21,11.4477 20.5523,10.9999 20,10.9999 L19,10.9999 Z M10.5,5.20705 L10.2323,4.93934 C9.6465,4.35355 8.69676,4.35355 8.11097,4.93934 C7.52518,5.52513 7.52518,6.47487 8.11097,7.06066 L10.9394,9.88909 C11.5252,10.4749 12.4749,10.4749 13.0607,9.88909 L15.8891,7.06066 C16.4749,6.47487 16.4749,5.52513 15.8891,4.93934 C15.3034,4.35355 14.3536,4.35355 13.7678,4.93934 L13.5,5.20716 L13.5,3 C13.5,2.17157 12.8284,1.5 12,1.5 C11.1716,1.5 10.5,2.17157 10.5,3 L10.5,5.20705 Z M12,22.5 C11.1716,22.5 10.5,21.8284 10.5,21 L10.5,18.793 L10.2323,19.0607 C9.6465,19.6464 8.69676,19.6464 8.11097,19.0607 C7.52518,18.4749 7.52518,17.5251 8.11097,16.9393 L10.9394,14.1109 C11.5252,13.5251 12.4749,13.5251 13.0607,14.1109 L15.8891,16.9393 C16.4749,17.5251 16.4749,18.4749 15.8891,19.0607 C15.3034,19.6464 14.3536,19.6464 13.7678,19.0607 L13.5,18.7928 L13.5,21 C13.5,21.8284 12.8284,22.5 12,22.5 Z" id="形状" fill="#09244B"></path>
            </g>
        </g>
    </g>
</svg>

<svg xmlns="http://www.w3.org/2000/svg" width="24" height="24"><g fill="none" fill-rule="nonzero"><path d="M24 0v24H0V0h24ZM12.594 23.258l-.012.002-.071.035-.02.004-.014-.004-.071-.036c-.01-.003-.019 0-.024.006l-.004.01-.017.428.005.02.01.013.104.074.015.004.012-.004.104-.074.012-.016.004-.017-.017-.427c-.002-.01-.009-.017-.016-.018Zm.264-.113-.014.002-.184.093-.01.01-.003.011.018.43.005.012.008.008.201.092c.012.004.023 0 .029-.008l.004-.014-.034-.614c-.003-.012-.01-.02-.02-.022Zm-.715.002a.023.023 0 0 0-.027.006l-.006.014-.034.614c0 .012.007.02.017.024l.015-.002.201-.093.01-.008.003-.011.018-.43-.003-.012-.01-.01-.184-.092Z"/><path fill="#09244B" d="M4 11a1 1 0 0 0 0 2h1a1 1 0 1 0 0-2H4Zm5 0a1 1 0 0 0 0 2h1a1 1 0 1 0 0-2H9Zm4 1a1 1 0 0 1 1-1h1a1 1 0 0 1 0 2h-1a1 1 0 0 1-1-1Zm6-1a1 1 0 0 0 0 2h1a1 1 0 1 0 0-2h-1Zm-8.5-5.793-.268-.268a1.5 1.5 0 0 0-2.121 2.122l2.828 2.828a1.5 1.5 0 0 0 2.122 0l2.828-2.828a1.5 1.5 0 1 0-2.121-2.122l-.268.268V3a1.5 1.5 0 0 0-3 0v2.207ZM12 22.5a1.5 1.5 0 0 1-1.5-1.5v-2.207l-.268.268a1.5 1.5 0 0 1-2.121-2.122l2.828-2.828a1.5 1.5 0 0 1 2.122 0l2.828 2.828a1.5 1.5 0 0 1-2.121 2.122l-.268-.268V21a1.5 1.5 0 0 1-1.5 1.5Z"/></g></svg>
